X:1
T:Kitchen Girl
R:reel
M:4/4
L:1/8
K:Amix
Q:1/4=120
|:"A"c2ec Bcec|"G"BAGB A2GA|"A"c2ec Bcec|"G"BAGB A4|
"A"c2ec Bcec|"G"BAGB A2GA|"A"c2ec "G"BAGB|"A"A2A2 A4:|
|:"A"a2ea ceAc|"G"BAGB A2GA|"A"a2ea ceAc|"G"BAGB A4|
"A"a2ea ceAc|"G"BAGB A2GA|"A"c2ec "G"BAGB|"A"A2A2 A4:|
